X:403
T:Catherine est au Bord du Bois
Z:Jack Campin, http://www.campin.me.uk/
F:Jack Campin's Nine-Note Tunebook
% last edit 03-02-2013
S:http://corpsyphonie.free.fr/wiki/pmwiki.php/Chant/Catherine-est-au-bord-du-bois
G:French round from Berry, for the dance Rond d'Argenton
N:Can be played/sung as a round
M:12/8
L:1/8
Q:3/8=108
K:DDor
D|F2E D2A A2B A2G|F2E D2A G3  A2:|
A|A2B c2A A2G F2F|D2D F2F G2F D3||
|:A2A A2G GED C3 |D2E F2D C2E D3:|

